;FLAVOR:Marlin
;TIME:9935
;Filament used: 2.44827m
;Layer height: 0.1
;Generated with Cura_SteamEngine 3.4.1
M82 ;absolute extrusion mode
;-- START GCODE --
;Sliced for Type A Machines Series 1
;Sliced at: Wed 18-07-2018 10:50:59
;Basic settings:
;Layer height: 0.1
;Walls: 1
;Fill: {fill_distance}
;Print Speed: {print_speed}
;Support: 0
;Retraction Speed: 35
;Retraction Distance: 0.4
;Print time: 02:45:36
;Filament used: [2.45]m [0.0]g
;Settings based on: {material_profile}
G21 ;metric values
G90 ;absolute positioning
G28 ;move to endstops
G29 ;allows for auto-levelling
G1 Z15.0 F12000 ;move the platform down 15mm
G1 X150 Y5 F9000 ;center
M140 S60 ;Prep Heat Bed
M109 S210 ;Heat To temp
M190 S60 ;Heat Bed to temp
G1 X150 Y5 Z0.3 ;move the platform to purge extrusion
G92 E0 ;zero the extruded length
G1 F200 X250 E30 ;extrude 30mm of feed stock
G92 E0 ;zero the extruded length again
G1 X150 Y150  Z25 F12000 ;recenter and begin
G1 F9000
G92 E0
G1 F2100 E-0.4
;LAYER_COUNT:19
;LAYER:0
M107
G0 F3600 X93.155 Y137.218 Z0.3
;TYPE:SKIRT
G1 F2100 E0
G1 F450 X93.588 Y136.957 E0.02522
G1 X94.056 Y136.767 E0.05042
G1 X94.549 Y136.654 E0.07566
G1 X95.019 Y136.619 E0.09917
G1 X209.981 Y136.62 E5.83465
G1 X210.485 Y136.66 E5.85987
G1 X210.976 Y136.779 E5.88508
G1 X211.443 Y136.973 E5.91031
G1 X211.873 Y137.239 E5.93553
G1 X212.256 Y137.569 E5.96075
G1 X212.582 Y137.956 E5.986
G1 X212.843 Y138.389 E6.01122
G1 X213.033 Y138.857 E6.03642
G1 X213.146 Y139.35 E6.06166
G1 X213.181 Y139.82 E6.08517
G1 X213.181 Y165.181 E7.35043
G1 X213.141 Y165.685 E7.37566
G1 X213.022 Y166.176 E7.40086
G1 X212.828 Y166.643 E7.42609
G1 X212.562 Y167.073 E7.45132
G1 X212.232 Y167.456 E7.47654
G1 X211.845 Y167.782 E7.50178
G1 X211.412 Y168.043 E7.52701
G1 X210.944 Y168.233 E7.55221
G1 X210.451 Y168.346 E7.57744
G1 X209.981 Y168.381 E7.60095
G1 X95.019 Y168.381 E13.33643
G1 X94.515 Y168.341 E13.36166
G1 X94.024 Y168.222 E13.38686
G1 X93.557 Y168.028 E13.41209
G1 X93.127 Y167.762 E13.43732
G1 X92.744 Y167.432 E13.46254
G1 X92.418 Y167.045 E13.48778
G1 X92.157 Y166.612 E13.51301
G1 X91.967 Y166.144 E13.53821
G1 X91.854 Y165.651 E13.56344
G1 X91.819 Y165.181 E13.58695
G1 X91.819 Y139.819 E14.85227
G1 X91.859 Y139.315 E14.87749
G1 X91.978 Y138.824 E14.9027
G1 X92.172 Y138.357 E14.92793
G1 X92.438 Y137.927 E14.95315
G1 X92.768 Y137.544 E14.97837
G1 X93.155 Y137.218 E15.00362
G1 F2100 E14.60362
G0 F3600 X95.624 Y139.145
G0 X95.624 Y140.424
G0 X209.32 Y164.52
G0 X209.39 Y164.59
;TYPE:WALL-INNER
G1 F2100 E15.00362
G1 F450 X95.61 Y164.59 E20.68013
G1 X95.61 Y140.41 E21.88647
G1 X209.39 Y140.41 E27.56298
G1 X209.39 Y164.59 E28.76932
G0 F3600 X209.79 Y164.99
;TYPE:WALL-OUTER
G1 F450 X95.21 Y164.99 E34.48574
G1 X95.21 Y140.01 E35.732
G1 X209.79 Y140.01 E41.44842
G1 X209.79 Y164.99 E42.69468
G0 F3600 X209.59 Y164.99
G0 X209.32 Y164.52
G0 X209 Y164.2
;TYPE:SKIN
G1 F450 X96 Y164.2 E48.33227
G1 X96 Y140.8 E49.4997
G1 X209 Y140.8 E55.13729
G1 X209 Y164.2 E56.30472
G0 F3600 X208.819 Y141.502
G1 F450 X208.295 Y140.979 E56.34166
G0 F3600 X207.73 Y140.979
G1 F450 X208.819 Y142.068 E56.4185
G1 X208.889 Y142.138
G0 F3600 X208.819 Y142.634
G1 F450 X207.164 Y140.979 E56.53526
G1 X207.094 Y140.909
G0 F3600 X206.598 Y140.979
G1 F450 X208.819 Y143.199 E56.69193
G1 X208.889 Y143.269
G0 F3600 X208.819 Y143.765
G1 F450 X206.033 Y140.979 E56.8885
G1 X205.963 Y140.909
G0 F3600 X205.467 Y140.979
G1 F450 X208.819 Y144.331 E57.125
G1 X208.889 Y144.401
G0 F3600 X208.819 Y144.896
G1 F450 X204.901 Y140.979 E57.4014
G1 X204.831 Y140.909
G0 F3600 X204.336 Y140.979
G1 F450 X208.819 Y145.462 E57.7177
G1 X208.889 Y145.532
G0 F3600 X208.819 Y146.028
G1 F450 X203.77 Y140.979 E58.07394
G1 X203.7 Y140.909
G0 F3600 X203.204 Y140.979
G1 F450 X208.819 Y146.593 E58.47007
G1 X208.889 Y146.663
G0 F3600 X208.819 Y147.159
G1 F450 X202.639 Y140.979 E58.9061
G1 X202.569 Y140.909
G0 F3600 X202.073 Y140.979
G1 F450 X208.819 Y147.725 E59.38207
G1 X208.889 Y147.795
G0 F3600 X208.819 Y148.29
G1 F450 X201.507 Y140.979 E59.89794
G1 X201.437 Y140.909
G0 F3600 X200.942 Y140.979
G1 F450 X208.819 Y148.856 E60.4537
G1 X208.889 Y148.926
G0 F3600 X208.819 Y149.422
G1 F450 X200.376 Y140.979 E61.0494
G1 X200.306 Y140.909
G0 F3600 X199.81 Y140.979
G1 F450 X208.819 Y149.987 E61.685
G1 X208.889 Y150.057
G0 F3600 X208.819 Y150.553
G1 F450 X199.245 Y140.979 E62.36049
G1 X199.175 Y140.909
G0 F3600 X198.679 Y140.979
G1 F450 X208.819 Y151.119 E63.07593
G1 X208.889 Y151.189
G0 F3600 X208.819 Y151.685
G1 F450 X198.113 Y140.979 E63.83129
G1 X198.043 Y140.909
G0 F3600 X197.547 Y140.979
G1 F450 X208.819 Y152.25 E64.62656
G1 X208.889 Y152.32
G0 F3600 X208.819 Y152.816
G1 F450 X196.982 Y140.979 E65.46172
G1 X196.912 Y140.909
G0 F3600 X196.416 Y140.979
G1 F450 X208.819 Y153.382 E66.33682
G1 X208.889 Y153.452
G0 F3600 X208.819 Y153.947
G1 F450 X195.85 Y140.979 E67.25182
G1 X195.78 Y140.909
G0 F3600 X195.285 Y140.979
G1 F450 X208.819 Y154.513 E68.20672
G1 X208.889 Y154.583
G0 F3600 X208.819 Y155.079
G1 F450 X194.719 Y140.979 E69.20155
G1 X194.649 Y140.909
G0 F3600 X194.153 Y140.979
G1 F450 X208.819 Y155.644 E70.23628
G1 X208.889 Y155.714
G0 F3600 X208.819 Y156.21
G1 F450 X193.588 Y140.979 E71.31091
G1 X193.518 Y140.909
G0 F3600 X193.022 Y140.979
G1 F450 X208.819 Y156.776 E72.42547
G1 X208.889 Y156.846
G0 F3600 X208.819 Y157.341
G1 F450 X192.456 Y140.979 E73.57993
G1 X192.386 Y140.909
G0 F3600 X191.891 Y140.979
G1 F450 X208.819 Y157.907 E74.77429
G1 X208.889 Y157.977
G0 F3600 X208.819 Y158.473
G1 F450 X191.325 Y140.979 E76.00859
G1 X191.255 Y140.909
G0 F3600 X190.759 Y140.979
G1 F450 X208.819 Y159.038 E77.28279
G1 X208.889 Y159.108
G0 F3600 X208.819 Y159.604
G1 F450 X190.194 Y140.979 E78.59688
G1 X190.124 Y140.909
G0 F3600 X189.628 Y140.979
G1 F450 X208.819 Y160.17 E79.95091
G1 X208.889 Y160.24
G0 F3600 X208.819 Y160.735
G1 F450 X189.062 Y140.979 E81.34484
G1 X188.992 Y140.909
G0 F3600 X188.496 Y140.979
G1 F450 X208.819 Y161.301 E82.7787
G1 X208.889 Y161.371
G0 F3600 X208.819 Y161.867
G1 F450 X187.931 Y140.979 E84.25246
G1 X187.861 Y140.909
G0 F3600 X187.365 Y140.979
G1 F450 X208.819 Y162.433 E85.76616
G1 X208.889 Y162.503
G0 F3600 X208.819 Y162.998
G1 F450 X186.799 Y140.979 E87.31975
G1 X186.729 Y140.909
G0 F3600 X186.234 Y140.979
G1 F450 X208.819 Y163.564 E88.91324
G1 X208.889 Y163.634
G0 F3600 X208.708 Y164.019
G1 F450 X185.668 Y140.979 E90.53884
G1 X185.598 Y140.909
G0 F3600 X185.102 Y140.979
G1 F450 X208.143 Y164.019 E92.16447
G1 X208.213 Y164.089
G0 F3600 X207.577 Y164.019
G1 F450 X184.537 Y140.979 E93.79007
G1 X184.467 Y140.909
G0 F3600 X183.971 Y140.979
G1 F450 X207.011 Y164.019 E95.41567
G1 X207.081 Y164.089
G0 F3600 X206.446 Y164.019
G1 F450 X183.405 Y140.979 E97.0413
G1 X183.335 Y140.909
G0 F3600 X182.84 Y140.979
G1 F450 X205.88 Y164.019 E98.66689
G1 X205.95 Y164.089
G0 F3600 X205.314 Y164.019
G1 F450 X182.274 Y140.979 E100.29249
G1 X182.204 Y140.909
G0 F3600 X181.708 Y140.979
G1 F450 X204.749 Y164.019 E101.91812
G1 X204.819 Y164.089
G0 F3600 X204.183 Y164.019
G1 F450 X181.143 Y140.979 E103.54372
G1 X181.073 Y140.909
G0 F3600 X180.577 Y140.979
G1 F450 X203.617 Y164.019 E105.16931
G1 X203.687 Y164.089
G0 F3600 X203.052 Y164.019
G1 F450 X180.011 Y140.979 E106.79495
G1 X179.941 Y140.909
G0 F3600 X179.446 Y140.979
G1 F450 X202.486 Y164.019 E108.42054
G1 X202.556 Y164.089
G0 F3600 X201.92 Y164.019
G1 F450 X178.88 Y140.979 E110.04614
G1 X178.81 Y140.909
G0 F3600 X178.314 Y140.979
G1 F450 X201.355 Y164.019 E111.67177
G1 X201.425 Y164.089
G0 F3600 X200.789 Y164.019
G1 F450 X177.748 Y140.979 E113.2974
G1 X177.678 Y140.909
G0 F3600 X177.183 Y140.979
G1 F450 X200.223 Y164.019 E114.923
G1 X200.293 Y164.089
G0 F3600 X199.657 Y164.019
G1 F450 X176.617 Y140.979 E116.5486
G1 X176.547 Y140.909
G0 F3600 X176.051 Y140.979
G1 F450 X199.092 Y164.019 E118.17423
G1 X199.162 Y164.089
G0 F3600 X198.526 Y164.019
G1 F450 X175.486 Y140.979 E119.79982
G1 X175.416 Y140.909
G0 F3600 X174.92 Y140.979
G1 F450 X197.96 Y164.019 E121.42542
G1 X198.03 Y164.089
G0 F3600 X197.395 Y164.019
G1 F450 X174.354 Y140.979 E123.05105
G1 X174.284 Y140.909
G0 F3600 X173.789 Y140.979
G1 F450 X196.829 Y164.019 E124.67665
G1 X196.899 Y164.089
G0 F3600 X196.263 Y164.019
G1 F450 X173.223 Y140.979 E126.30224
G1 X173.153 Y140.909
G0 F3600 X172.657 Y140.979
G1 F450 X195.698 Y164.019 E127.92788
G1 X195.768 Y164.089
G0 F3600 X195.132 Y164.019
G1 F450 X172.092 Y140.979 E129.55347
G1 X172.022 Y140.909
G0 F3600 X171.526 Y140.979
G1 F450 X194.566 Y164.019 E131.17907
G1 X194.636 Y164.089
G0 F3600 X194.001 Y164.019
G1 F450 X170.96 Y140.979 E132.8047
G1 X170.89 Y140.909
G0 F3600 X170.395 Y140.979
G1 F450 X193.435 Y164.019 E134.4303
G1 X193.505 Y164.089
G0 F3600 X192.869 Y164.019
G1 F450 X169.829 Y140.979 E136.05589
G1 X169.759 Y140.909
G0 F3600 X169.263 Y140.979
G1 F450 X192.304 Y164.019 E137.68153
G1 X192.374 Y164.089
G0 F3600 X191.738 Y164.019
G1 F450 X168.698 Y140.979 E139.30712
G1 X168.628 Y140.909
G0 F3600 X168.132 Y140.979
G1 F450 X191.172 Y164.019 E140.93272
G1 X191.242 Y164.089
G0 F3600 X190.606 Y164.019
G1 F450 X167.566 Y140.979 E142.55831
G1 X167.496 Y140.909
G0 F3600 X167 Y140.979
G1 F450 X190.041 Y164.019 E144.18395
G1 X190.111 Y164.089
G0 F3600 X189.475 Y164.019
G1 F450 X166.435 Y140.979 E145.80954
G1 X166.365 Y140.909
G0 F3600 X165.869 Y140.979
G1 F450 X188.909 Y164.019 E147.43514
G1 X188.979 Y164.089
G0 F3600 X188.344 Y164.019
G1 F450 X165.303 Y140.979 E149.06077
G1 X165.233 Y140.909
G0 F3600 X164.738 Y140.979
G1 F450 X187.778 Y164.019 E150.68637
G1 X187.848 Y164.089
G0 F3600 X187.212 Y164.019
G1 F450 X164.172 Y140.979 E152.31196
G1 X164.102 Y140.909
G0 F3600 X163.606 Y140.979
G1 F450 X186.647 Y164.019 E153.9376
G1 X186.717 Y164.089
G0 F3600 X186.081 Y164.019
G1 F450 X163.041 Y140.979 E155.56319
G1 X162.971 Y140.909
G0 F3600 X162.475 Y140.979
G1 F450 X185.515 Y164.019 E157.18879
G1 X185.585 Y164.089
G0 F3600 X184.95 Y164.019
G1 F450 X161.909 Y140.979 E158.81442
G1 X161.839 Y140.909
G0 F3600 X161.344 Y140.979
G1 F450 X184.384 Y164.019 E160.44002
G1 X184.454 Y164.089
G0 F3600 X183.818 Y164.019
G1 F450 X160.778 Y140.979 E162.06561
G1 X160.708 Y140.909
G0 F3600 X160.212 Y140.979
G1 F450 X183.253 Y164.019 E163.69124
G1 X183.323 Y164.089
G0 F3600 X182.687 Y164.019
G1 F450 X159.647 Y140.979 E165.31684
G1 X159.577 Y140.909
G0 F3600 X159.081 Y140.979
G1 F450 X182.121 Y164.019 E166.94244
G1 X182.191 Y164.089
G0 F3600 X181.556 Y164.019
G1 F450 X158.515 Y140.979 E168.56807
G1 X158.445 Y140.909
G0 F3600 X157.949 Y140.979
G1 F450 X180.99 Y164.019 E170.1937
G1 X181.06 Y164.089
G0 F3600 X180.424 Y164.019
G1 F450 X157.384 Y140.979 E171.8193
G1 X157.314 Y140.909
G0 F3600 X156.818 Y140.979
G1 F450 X179.858 Y164.019 E173.44489
G1 X179.928 Y164.089
G0 F3600 X179.293 Y164.019
G1 F450 X156.252 Y140.979 E175.07053
G1 X156.182 Y140.909
G0 F3600 X155.687 Y140.979
G1 F450 X178.727 Y164.019 E176.69612
G1 X178.797 Y164.089
G0 F3600 X178.161 Y164.019
G1 F450 X155.121 Y140.979 E178.32172
G1 X155.051 Y140.909
G0 F3600 X154.555 Y140.979
G1 F450 X177.596 Y164.019 E179.94735
G1 X177.666 Y164.089
G0 F3600 X177.03 Y164.019
G1 F450 X153.99 Y140.979 E181.57295
G1 X153.92 Y140.909
G0 F3600 X153.424 Y140.979
G1 F450 X176.464 Y164.019 E183.19854
G1 X176.534 Y164.089
G0 F3600 X175.899 Y164.019
G1 F450 X152.858 Y140.979 E184.82417
G1 X152.788 Y140.909
G0 F3600 X152.293 Y140.979
G1 F450 X175.333 Y164.019 E186.44977
G1 X175.403 Y164.089
G0 F3600 X174.767 Y164.019
G1 F450 X151.727 Y140.979 E188.07537
G1 X151.657 Y140.909
G0 F3600 X151.161 Y140.979
G1 F450 X174.202 Y164.019 E189.701
G1 X174.272 Y164.089
G0 F3600 X173.636 Y164.019
G1 F450 X150.596 Y140.979 E191.3266
G1 X150.526 Y140.909
G0 F3600 X150.03 Y140.979
G1 F450 X173.07 Y164.019 E192.95219
G1 X173.14 Y164.089
G0 F3600 X172.505 Y164.019
G1 F450 X149.464 Y140.979 E194.57782
G1 X149.394 Y140.909
G0 F3600 X148.899 Y140.979
G1 F450 X171.939 Y164.019 E196.20342
G1 X172.009 Y164.089
G0 F3600 X171.373 Y164.019
G1 F450 X148.333 Y140.979 E197.82902
G1 X148.263 Y140.909
G0 F3600 X147.767 Y140.979
G1 F450 X170.808 Y164.019 E199.45465
G1 X170.878 Y164.089
G0 F3600 X170.242 Y164.019
G1 F450 X147.201 Y140.979 E201.08028
G1 X147.131 Y140.909
G0 F3600 X146.636 Y140.979
G1 F450 X169.676 Y164.019 E202.70588
G1 X169.746 Y164.089
G0 F3600 X169.11 Y164.019
G1 F450 X146.07 Y140.979 E204.33147
G1 X146 Y140.909
G0 F3600 X145.504 Y140.979
G1 F450 X168.545 Y164.019 E205.95711
G1 X168.615 Y164.089
G0 F3600 X167.979 Y164.019
G1 F450 X144.939 Y140.979 E207.5827
G1 X144.869 Y140.909
G0 F3600 X144.373 Y140.979
G1 F450 X167.413 Y164.019 E209.2083
G1 X167.483 Y164.089
G0 F3600 X166.848 Y164.019
G1 F450 X143.807 Y140.979 E210.83393
G1 X143.737 Y140.909
G0 F3600 X143.242 Y140.979
G1 F450 X166.282 Y164.019 E212.45953
G1 X166.352 Y164.089
G0 F3600 X165.716 Y164.019
G1 F450 X142.676 Y140.979 E214.08512
G1 X142.606 Y140.909
G0 F3600 X142.11 Y140.979
G1 F450 X165.151 Y164.019 E215.71075
G1 X165.221 Y164.089
G0 F3600 X164.585 Y164.019
G1 F450 X141.545 Y140.979 E217.33635
G1 X141.475 Y140.909
G0 F3600 X140.979 Y140.979
G1 F450 X164.019 Y164.019 E218.96195
G1 X164.089 Y164.089
G0 F3600 X163.454 Y164.019
G1 F450 X140.413 Y140.979 E220.58758
G1 X140.343 Y140.909
G0 F3600 X139.848 Y140.979
G1 F450 X162.888 Y164.019 E222.21318
G1 X162.958 Y164.089
G0 F3600 X162.322 Y164.019
G1 F450 X139.282 Y140.979 E223.83877
G1 X139.212 Y140.909
G0 F3600 X138.716 Y140.979
G1 F450 X161.757 Y164.019 E225.4644
G1 X161.827 Y164.089
G0 F3600 X161.191 Y164.019
G1 F450 X138.15 Y140.979 E227.09004
G1 X138.08 Y140.909
G0 F3600 X137.585 Y140.979
G1 F450 X160.625 Y164.019 E228.71563
G1 X160.695 Y164.089
G0 F3600 X160.059 Y164.019
G1 F450 X137.019 Y140.979 E230.34123
G1 X136.949 Y140.909
G0 F3600 X136.453 Y140.979
G1 F450 X159.494 Y164.019 E231.96686
G1 X159.564 Y164.089
G0 F3600 X158.928 Y164.019
G1 F450 X135.888 Y140.979 E233.59246
G1 X135.818 Y140.909
G0 F3600 X135.322 Y140.979
G1 F450 X158.362 Y164.019 E235.21805
G1 X158.432 Y164.089
G0 F3600 X157.797 Y164.019
G1 F450 X134.756 Y140.979 E236.84368
G1 X134.686 Y140.909
G0 F3600 X134.191 Y140.979
G1 F450 X157.231 Y164.019 E238.46928
G1 X157.301 Y164.089
G0 F3600 X156.665 Y164.019
G1 F450 X133.625 Y140.979 E240.09488
G1 X133.555 Y140.909
G0 F3600 X133.059 Y140.979
G1 F450 X156.1 Y164.019 E241.72051
G1 X156.17 Y164.089
G0 F3600 X155.534 Y164.019
G1 F450 X132.494 Y140.979 E243.34611
G1 X132.424 Y140.909
G0 F3600 X131.928 Y140.979
G1 F450 X154.968 Y164.019 E244.9717
G1 X155.038 Y164.089
G0 F3600 X154.403 Y164.019
G1 F450 X131.362 Y140.979 E246.59733
G1 X131.292 Y140.909
G0 F3600 X130.797 Y140.979
G1 F450 X153.837 Y164.019 E248.22293
G1 X153.907 Y164.089
G0 F3600 X153.271 Y164.019
G1 F450 X130.231 Y140.979 E249.84853
G1 X130.161 Y140.909
G0 F3600 X129.665 Y140.979
G1 F450 X152.706 Y164.019 E251.47416
G1 X152.776 Y164.089
G0 F3600 X152.14 Y164.019
G1 F450 X129.1 Y140.979 E253.09975
G1 X129.03 Y140.909
G0 F3600 X128.534 Y140.979
G1 F450 X151.574 Y164.019 E254.72535
G1 X151.644 Y164.089
G0 F3600 X151.009 Y164.019
G1 F450 X127.968 Y140.979 E256.35098
G1 X127.898 Y140.909
G0 F3600 X127.402 Y140.979
G1 F450 X150.443 Y164.019 E257.97661
G1 X150.513 Y164.089
G0 F3600 X149.877 Y164.019
G1 F450 X126.837 Y140.979 E259.60221
G1 X126.767 Y140.909
G0 F3600 X126.271 Y140.979
G1 F450 X149.311 Y164.019 E261.22781
G1 X149.381 Y164.089
G0 F3600 X148.746 Y164.019
G1 F450 X125.705 Y140.979 E262.85344
G1 X125.635 Y140.909
G0 F3600 X125.14 Y140.979
G1 F450 X148.18 Y164.019 E264.47904
G1 X148.25 Y164.089
G0 F3600 X147.614 Y164.019
G1 F450 X124.574 Y140.979 E266.10463
G1 X124.504 Y140.909
G0 F3600 X124.008 Y140.979
G1 F450 X147.049 Y164.019 E267.73026
G1 X147.119 Y164.089
G0 F3600 X146.483 Y164.019
G1 F450 X123.443 Y140.979 E269.35586
G1 X123.373 Y140.909
G0 F3600 X122.877 Y140.979
G1 F450 X145.917 Y164.019 E270.98146
G1 X145.987 Y164.089
G0 F3600 X145.352 Y164.019
G1 F450 X122.311 Y140.979 E272.60709
G1 X122.241 Y140.909
G0 F3600 X121.746 Y140.979
G1 F450 X144.786 Y164.019 E274.23268
G1 X144.856 Y164.089
G0 F3600 X144.22 Y164.019
G1 F450 X121.18 Y140.979 E275.85828
G1 X121.11 Y140.909
