;FLAVOR:Marlin
;TIME:3613
;Filament used: 1.11307m
;Layer height: 0.06
;Generated with Cura_SteamEngine 3.4.1
M82 ;absolute extrusion mode
;-- START GCODE --
;Sliced for Type A Machines Series 1
;Sliced at: Thu 19-07-2018 16:59:15
;Basic settings:
;Layer height: 0.06
;Walls: 1
;Fill: {fill_distance}
;Print Speed: {print_speed}
;Support: 0
;Retraction Speed: 35
;Retraction Distance: 0.4
;Print time: 01:00:14
;Filament used: [1.11]m [0.0]g
;Settings based on: {material_profile}
G21 ;metric values
G90 ;absolute positioning
G28 ;move to endstops
G29 ;allows for auto-levelling
G1 Z15.0 F12000 ;move the platform down 15mm
G1 X150 Y5 F9000 ;center
M140 S60 ;Prep Heat Bed
M109 S210 ;Heat To temp
M190 S60 ;Heat Bed to temp
G1 X150 Y5 Z0.3 ;move the platform to purge extrusion
G92 E0 ;zero the extruded length
G1 F200 X250 E30 ;extrude 30mm of feed stock
G92 E0 ;zero the extruded length again
G1 X150 Y150  Z25 F12000 ;recenter and begin
G1 F9000
G92 E0
G1 F2100 E-0.4
;LAYER_COUNT:13
;LAYER:0
M107
G0 F3600 X81.889 Y129.96 Z0.3
;TYPE:SKIRT
G1 F2100 E0
G1 F450 X83.113 Y129.252 E0.07055
G1 X84.375 Y128.615 E0.14107
G1 X85.672 Y128.05 E0.21165
G1 X86.998 Y127.559 E0.2822
G1 X88.35 Y127.144 E0.35276
G1 X89.723 Y126.806 E0.4233
G1 X91.113 Y126.546 E0.49385
G1 X92.515 Y126.365 E0.56438
G1 X93.925 Y126.264 E0.6349
G1 X95.01 Y126.24 E0.68905
G1 X209.99 Y126.24 E6.42542
G1 X211.404 Y126.28 E6.49599
G1 X212.812 Y126.4 E6.56649
G1 X214.212 Y126.599 E6.63704
G1 X215.599 Y126.877 E6.70762
G1 X216.967 Y127.233 E6.77814
G1 X218.314 Y127.666 E6.84873
G1 X219.633 Y128.175 E6.91926
G1 X220.922 Y128.757 E6.98982
G1 X222.176 Y129.411 E7.06038
G1 X223.39 Y130.135 E7.1309
G1 X224.562 Y130.926 E7.20144
G1 X225.687 Y131.783 E7.272
G1 X226.762 Y132.701 E7.34253
G1 X227.784 Y133.679 E7.4131
G1 X228.748 Y134.713 E7.48363
G1 X229.653 Y135.8 E7.55419
G1 X230.494 Y136.937 E7.62475
G1 X231.27 Y138.119 E7.69529
G1 X231.978 Y139.343 E7.76584
G1 X232.615 Y140.605 E7.83637
G1 X233.18 Y141.902 E7.90695
G1 X233.671 Y143.228 E7.97749
G1 X234.086 Y144.58 E8.04805
G1 X234.424 Y145.953 E8.11859
G1 X234.684 Y147.343 E8.18914
G1 X234.865 Y148.745 E8.25967
G1 X234.966 Y150.155 E8.3302
G1 X234.99 Y151.24 E8.38434
G1 X234.99 Y153.76 E8.51006
G1 X234.95 Y155.174 E8.58064
G1 X234.83 Y156.582 E8.65114
G1 X234.631 Y157.982 E8.72168
G1 X234.353 Y159.369 E8.79226
G1 X233.997 Y160.737 E8.86278
G1 X233.564 Y162.084 E8.93337
G1 X233.055 Y163.403 E9.0039
G1 X232.473 Y164.692 E9.07446
G1 X231.819 Y165.946 E9.14502
G1 X231.095 Y167.16 E9.21554
G1 X230.304 Y168.332 E9.28609
G1 X229.447 Y169.457 E9.35664
G1 X228.529 Y170.532 E9.42717
G1 X227.551 Y171.554 E9.49774
G1 X226.517 Y172.518 E9.56827
G1 X225.43 Y173.423 E9.63884
G1 X224.293 Y174.264 E9.70939
G1 X223.111 Y175.04 E9.77993
G1 X221.887 Y175.748 E9.85048
G1 X220.625 Y176.385 E9.92101
G1 X219.328 Y176.95 E9.99159
G1 X218.002 Y177.441 E10.06213
G1 X216.65 Y177.856 E10.13269
G1 X215.277 Y178.194 E10.20323
G1 X213.887 Y178.454 E10.27378
G1 X212.485 Y178.635 E10.34431
G1 X211.075 Y178.736 E10.41484
G1 X209.99 Y178.76 E10.46898
G1 X95.01 Y178.76 E16.20536
G1 X93.596 Y178.72 E16.27593
G1 X92.188 Y178.6 E16.34643
G1 X90.788 Y178.401 E16.41698
G1 X89.401 Y178.123 E16.48755
G1 X88.033 Y177.767 E16.55807
G1 X86.686 Y177.334 E16.62866
G1 X85.367 Y176.825 E16.6992
G1 X84.078 Y176.243 E16.76976
G1 X82.824 Y175.589 E16.84032
G1 X81.61 Y174.865 E16.91084
G1 X80.438 Y174.074 E16.98138
G1 X79.313 Y173.217 E17.05194
G1 X78.238 Y172.299 E17.12246
G1 X77.216 Y171.321 E17.19304
G1 X76.252 Y170.287 E17.26356
G1 X75.347 Y169.2 E17.33413
G1 X74.506 Y168.063 E17.40469
G1 X73.73 Y166.881 E17.47523
G1 X73.022 Y165.657 E17.54577
G1 X72.385 Y164.395 E17.6163
G1 X71.82 Y163.098 E17.68688
G1 X71.329 Y161.772 E17.75743
G1 X70.914 Y160.42 E17.82798
G1 X70.576 Y159.047 E17.89853
G1 X70.316 Y157.657 E17.96908
G1 X70.135 Y156.255 E18.0396
G1 X70.034 Y154.845 E18.11013
G1 X70.01 Y153.76 E18.16427
G1 X70.01 Y151.24 E18.29
G1 X70.05 Y149.826 E18.36057
G1 X70.17 Y148.418 E18.43107
G1 X70.369 Y147.018 E18.50162
G1 X70.647 Y145.631 E18.57219
G1 X71.003 Y144.263 E18.64272
G1 X71.436 Y142.916 E18.7133
G1 X71.945 Y141.597 E18.78384
G1 X72.527 Y140.308 E18.8544
G1 X73.181 Y139.054 E18.92496
G1 X73.905 Y137.84 E18.99548
G1 X74.696 Y136.668 E19.06602
G1 X75.553 Y135.543 E19.13658
G1 X76.471 Y134.468 E19.2071
G1 X77.449 Y133.446 E19.27768
G1 X78.483 Y132.482 E19.3482
G1 X79.57 Y131.577 E19.41877
G1 X80.707 Y130.736 E19.48933
G1 X81.889 Y129.96 E19.55987
G0 F3600 X82.272 Y130.195
G1 F450 X83.492 Y129.503 E19.62985
G1 X84.75 Y128.882 E19.69984
G1 X86.041 Y128.333 E19.76983
G1 X87.361 Y127.859 E19.8398
G1 X88.706 Y127.461 E19.90978
G1 X90.072 Y127.141 E19.97977
G1 X91.453 Y126.898 E20.04973
G1 X92.847 Y126.735 E20.11975
G1 X94.247 Y126.652 E20.18972
G1 X95.01 Y126.64 E20.22779
G1 X209.99 Y126.64 E25.96417
G1 X211.392 Y126.68 E26.03414
G1 X212.79 Y126.8 E26.10414
G1 X214.178 Y126.999 E26.1741
G1 X215.553 Y127.277 E26.24409
G1 X216.91 Y127.633 E26.31408
G1 X218.244 Y128.066 E26.38405
G1 X219.552 Y128.574 E26.45406
G1 X220.828 Y129.156 E26.52402
G1 X222.069 Y129.81 E26.59401
G1 X223.271 Y130.533 E26.66399
G1 X224.43 Y131.324 E26.734
G1 X225.541 Y132.179 E26.80394
G1 X226.602 Y133.096 E26.8739
G1 X227.61 Y134.073 E26.94394
G1 X228.559 Y135.105 E27.01388
G1 X229.449 Y136.19 E27.0839
G1 X230.275 Y137.323 E27.15385
G1 X231.035 Y138.502 E27.22383
G1 X231.727 Y139.722 E27.29381
G1 X232.348 Y140.98 E27.3638
G1 X232.897 Y142.271 E27.43379
G1 X233.371 Y143.591 E27.50376
G1 X233.769 Y144.936 E27.57374
G1 X234.089 Y146.302 E27.64373
G1 X234.332 Y147.683 E27.71369
G1 X234.495 Y149.077 E27.78371
G1 X234.578 Y150.477 E27.85368
G1 X234.59 Y151.24 E27.89175
G1 X234.59 Y153.76 E28.01747
G1 X234.55 Y155.162 E28.08745
G1 X234.43 Y156.56 E28.15745
G1 X234.231 Y157.948 E28.22741
G1 X233.953 Y159.323 E28.29739
G1 X233.597 Y160.68 E28.36739
G1 X233.164 Y162.014 E28.43736
G1 X232.656 Y163.322 E28.50736
G1 X232.074 Y164.598 E28.57733
G1 X231.42 Y165.839 E28.64732
G1 X230.697 Y167.041 E28.7173
G1 X229.906 Y168.2 E28.7873
G1 X229.051 Y169.311 E28.85725
G1 X228.134 Y170.372 E28.92721
G1 X227.157 Y171.38 E28.99724
G1 X226.125 Y172.329 E29.06719
G1 X225.04 Y173.219 E29.1372
G1 X223.907 Y174.045 E29.20716
G1 X222.728 Y174.805 E29.27714
G1 X221.508 Y175.497 E29.34711
G1 X220.25 Y176.118 E29.41711
G1 X218.959 Y176.667 E29.4871
G1 X217.639 Y177.141 E29.55707
G1 X216.294 Y177.539 E29.62705
G1 X214.928 Y177.859 E29.69704
G1 X213.547 Y178.102 E29.767
G1 X212.153 Y178.265 E29.83702
G1 X210.753 Y178.348 E29.90699
G1 X209.99 Y178.36 E29.94506
G1 X95.01 Y178.36 E35.68143
G1 X93.608 Y178.32 E35.75141
G1 X92.21 Y178.2 E35.82141
G1 X90.822 Y178.001 E35.89137
G1 X89.447 Y177.723 E35.96135
G1 X88.09 Y177.367 E36.03135
G1 X86.756 Y176.934 E36.10132
G1 X85.448 Y176.426 E36.17132
G1 X84.172 Y175.844 E36.24129
G1 X82.931 Y175.19 E36.31128
G1 X81.729 Y174.467 E36.38126
G1 X80.57 Y173.676 E36.45126
G1 X79.459 Y172.821 E36.52121
G1 X78.398 Y171.904 E36.59117
G1 X77.39 Y170.927 E36.6612
G1 X76.441 Y169.895 E36.73115
G1 X75.551 Y168.81 E36.80116
G1 X74.725 Y167.677 E36.87112
G1 X73.965 Y166.498 E36.9411
G1 X73.273 Y165.278 E37.01107
G1 X72.652 Y164.02 E37.08107
G1 X72.103 Y162.729 E37.15106
G1 X71.629 Y161.409 E37.22103
G1 X71.231 Y160.064 E37.29101
G1 X70.911 Y158.698 E37.361
G1 X70.668 Y157.317 E37.43096
G1 X70.505 Y155.923 E37.50098
G1 X70.422 Y154.523 E37.57095
G1 X70.41 Y153.76 E37.60902
G1 X70.41 Y151.24 E37.73474
G1 X70.45 Y149.838 E37.80472
G1 X70.57 Y148.44 E37.87472
G1 X70.769 Y147.052 E37.94468
G1 X71.047 Y145.677 E38.01466
G1 X71.403 Y144.32 E38.08465
G1 X71.836 Y142.986 E38.15463
G1 X72.344 Y141.678 E38.22463
G1 X72.926 Y140.402 E38.2946
G1 X73.58 Y139.161 E38.36459
G1 X74.303 Y137.959 E38.43457
G1 X75.094 Y136.8 E38.50457
G1 X75.949 Y135.689 E38.57451
G1 X76.866 Y134.628 E38.64448
G1 X77.843 Y133.62 E38.71451
G1 X78.875 Y132.671 E38.78446
G1 X79.96 Y131.781 E38.85447
G1 X81.093 Y130.955 E38.92442
G1 X82.272 Y130.195 E38.99441
G0 F3600 X82.654 Y130.432
G1 F450 X83.871 Y129.756 E39.06386
G1 X85.124 Y129.152 E39.13326
G1 X86.409 Y128.62 E39.20264
G1 X87.723 Y128.163 E39.27205
G1 X89.062 Y127.782 E39.3415
G1 X90.42 Y127.479 E39.41092
G1 X91.793 Y127.255 E39.48033
G1 X93.176 Y127.11 E39.5497
G1 X95.01 Y127.04 E39.64127
G1 X209.99 Y127.04 E45.37764
G1 X211.381 Y127.08 E45.44707
G1 X212.767 Y127.2 E45.51648
G1 X214.144 Y127.399 E45.58589
G1 X215.507 Y127.677 E45.65529
G1 X216.852 Y128.033 E45.7247
G1 X218.174 Y128.466 E45.7941
G1 X219.469 Y128.974 E45.8635
G1 X220.733 Y129.555 E45.93291
G1 X221.962 Y130.209 E46.00236
G1 X223.15 Y130.931 E46.07172
G1 X224.296 Y131.721 E46.14116
G1 X225.394 Y132.575 E46.21056
G1 X226.441 Y133.492 E46.28
G1 X227.434 Y134.466 E46.34939
G1 X228.369 Y135.496 E46.4188
G1 X229.243 Y136.579 E46.48823
G1 X230.054 Y137.709 E46.55762
G1 X230.798 Y138.884 E46.627
G1 X231.474 Y140.101 E46.69646
G1 X232.078 Y141.354 E46.76585
G1 X232.61 Y142.639 E46.83524
G1 X233.067 Y143.953 E46.90465
G1 X233.448 Y145.292 E46.9741
G1 X233.751 Y146.65 E47.04352
G1 X233.975 Y148.023 E47.11292
G1 X234.12 Y149.406 E47.1823
G1 X234.19 Y151.24 E47.27387
G1 X234.19 Y153.76 E47.39959
G1 X234.15 Y155.151 E47.46901
G1 X234.03 Y156.537 E47.53842
G1 X233.831 Y157.914 E47.60783
G1 X233.553 Y159.277 E47.67723
G1 X233.197 Y160.622 E47.74665
G1 X232.764 Y161.944 E47.81605
G1 X232.256 Y163.239 E47.88545
G1 X231.675 Y164.503 E47.95485
G1 X231.021 Y165.732 E48.02431
G1 X230.299 Y166.92 E48.09367
G1 X229.509 Y168.066 E48.16311
G1 X228.655 Y169.164 E48.23251
G1 X227.738 Y170.211 E48.30194
G1 X226.764 Y171.204 E48.37134
G1 X225.734 Y172.139 E48.44074
G1 X224.651 Y173.013 E48.51017
G1 X223.521 Y173.824 E48.57956
G1 X222.346 Y174.568 E48.64895
G1 X221.129 Y175.244 E48.7184
G1 X219.876 Y175.848 E48.7878
G1 X218.591 Y176.38 E48.85719
G1 X217.277 Y176.837 E48.92659
G1 X215.938 Y177.218 E48.99605
G1 X214.58 Y177.521 E49.06546
G1 X213.207 Y177.745 E49.13487
G1 X211.824 Y177.89 E49.20425
G1 X209.99 Y177.96 E49.29581
G1 X95.01 Y177.96 E55.03219
G1 X93.619 Y177.92 E55.10161
G1 X92.233 Y177.8 E55.17102
G1 X90.856 Y177.601 E55.24043
G1 X89.493 Y177.323 E55.30983
G1 X88.148 Y176.967 E55.37924
G1 X86.826 Y176.534 E55.44865
G1 X85.531 Y176.026 E55.51805
G1 X84.267 Y175.445 E55.58745
G1 X83.038 Y174.791 E55.65691
G1 X81.85 Y174.069 E55.72627
G1 X80.704 Y173.279 E55.79571
G1 X79.606 Y172.425 E55.86511
G1 X78.559 Y171.508 E55.93454
G1 X77.566 Y170.534 E56.00394
G1 X76.631 Y169.504 E56.07334
G1 X75.757 Y168.421 E56.14277
G1 X74.946 Y167.291 E56.21216
G1 X74.202 Y166.116 E56.28155
G1 X73.526 Y164.899 E56.351
G1 X72.922 Y163.646 E56.4204
G1 X72.39 Y162.361 E56.48978
G1 X71.933 Y161.047 E56.55919
G1 X71.552 Y159.708 E56.62865
G1 X71.249 Y158.35 E56.69806
G1 X71.025 Y156.977 E56.76747
G1 X70.88 Y155.594 E56.83684
G1 X70.81 Y153.76 E56.92841
G1 X70.81 Y151.24 E57.05413
G1 X70.85 Y149.849 E57.12356
G1 X70.97 Y148.463 E57.19296
G1 X71.169 Y147.086 E57.26238
G1 X71.447 Y145.723 E57.33178
G1 X71.803 Y144.378 E57.40119
G1 X72.236 Y143.056 E57.47059
G1 X72.744 Y141.761 E57.53999
G1 X73.325 Y140.497 E57.6094
G1 X73.979 Y139.268 E57.67885
G1 X74.701 Y138.08 E57.74821
G1 X75.491 Y136.934 E57.81765
G1 X76.345 Y135.836 E57.88705
G1 X77.262 Y134.789 E57.95649
G1 X78.236 Y133.796 E58.02588
G1 X79.266 Y132.861 E58.09528
G1 X80.349 Y131.987 E58.16472
G1 X81.479 Y131.176 E58.23411
G1 X82.654 Y130.432 E58.30349
G0 F3600 X83.036 Y130.671
G1 F450 X84.248 Y130.012 E58.37232
G1 X85.497 Y129.424 E58.44119
G1 X86.777 Y128.909 E58.51003
G1 X88.085 Y128.47 E58.57886
G1 X89.416 Y128.107 E58.64769
G1 X90.766 Y127.822 E58.71653
G1 X92.13 Y127.615 E58.78536
G1 X93.504 Y127.488 E58.8542
G1 X95.01 Y127.44 E58.92937
G1 X209.99 Y127.44 E64.66575
G1 X211.369 Y127.48 E64.73457
G1 X212.744 Y127.6 E64.80343
G1 X214.109 Y127.799 E64.87225
G1 X215.46 Y128.077 E64.94107
G1 X216.793 Y128.433 E65.0099
G1 X218.103 Y128.866 E65.07874
G1 X219.386 Y129.373 E65.14756
G1 X220.638 Y129.955 E65.21644
G1 X221.853 Y130.607 E65.28524
G1 X223.029 Y131.329 E65.35408
G1 X224.161 Y132.118 E65.42292
G1 X225.245 Y132.972 E65.49177
G1 X226.278 Y133.886 E65.56058
G1 X227.256 Y134.859 E65.62941
G1 X228.176 Y135.887 E65.69824
G1 X229.035 Y136.967 E65.76708
G1 X229.83 Y138.095 E65.83593
G1 X230.559 Y139.266 E65.90475
G1 X231.218 Y140.478 E65.97358
G1 X231.806 Y141.727 E66.04245
G1 X232.321 Y143.007 E66.11128
G1 X232.76 Y144.315 E66.18012
G1 X233.123 Y145.646 E66.24895
G1 X233.408 Y146.996 E66.31778
G1 X233.615 Y148.36 E66.38661
G1 X233.742 Y149.734 E66.45545
G1 X233.79 Y151.24 E66.53063
G1 X233.79 Y153.76 E66.65635
G1 X233.75 Y155.139 E66.72518
G1 X233.63 Y156.514 E66.79404
G1 X233.431 Y157.879 E66.86286
G1 X233.153 Y159.23 E66.93167
G1 X232.797 Y160.563 E67.00051
G1 X232.364 Y161.873 E67.06934
G1 X231.857 Y163.156 E67.13816
G1 X231.275 Y164.408 E67.20705
G1 X230.623 Y165.623 E67.27584
G1 X229.901 Y166.799 E67.34469
G1 X229.112 Y167.931 E67.41353
G1 X228.258 Y169.015 E67.48237
G1 X227.344 Y170.048 E67.55119
G1 X226.371 Y171.026 E67.62001
G1 X225.343 Y171.946 E67.68884
G1 X224.263 Y172.805 E67.75769
G1 X223.135 Y173.6 E67.82654
G1 X221.964 Y174.329 E67.89535
G1 X220.752 Y174.988 E67.96418
G1 X219.503 Y175.576 E68.03305
G1 X218.223 Y176.091 E68.10189
G1 X216.915 Y176.53 E68.17072
G1 X215.584 Y176.893 E68.23955
G1 X214.234 Y177.178 E68.30839
G1 X212.87 Y177.385 E68.37722
G1 X211.496 Y177.512 E68.44606
G1 X209.99 Y177.56 E68.52123
G1 X95.01 Y177.56 E74.25761
G1 X93.631 Y177.52 E74.32643
G1 X92.256 Y177.4 E74.39529
G1 X90.891 Y177.201 E74.46411
G1 X89.54 Y176.923 E74.53293
G1 X88.207 Y176.567 E74.60176
G1 X86.897 Y176.134 E74.6706
G1 X85.614 Y175.627 E74.73942
G1 X84.362 Y175.045 E74.8083
G1 X83.147 Y174.393 E74.8771
G1 X81.971 Y173.671 E74.94594
G1 X80.839 Y172.882 E75.01478
G1 X79.755 Y172.028 E75.08363
G1 X78.722 Y171.114 E75.15244
G1 X77.744 Y170.141 E75.22127
G1 X76.824 Y169.113 E75.2901
G1 X75.965 Y168.033 E75.35894
G1 X75.17 Y166.905 E75.42779
G1 X74.441 Y165.734 E75.49661
G1 X73.782 Y164.522 E75.56544
G1 X73.194 Y163.273 E75.63431
G1 X72.679 Y161.993 E75.70314
G1 X72.24 Y160.685 E75.77198
G1 X71.877 Y159.354 E75.84081
G1 X71.592 Y158.004 E75.90964
G1 X71.385 Y156.64 E75.97847
G1 X71.258 Y155.266 E76.04731
G1 X71.21 Y153.76 E76.12249
G1 X71.21 Y151.24 E76.24821
G1 X71.25 Y149.861 E76.31704
G1 X71.37 Y148.486 E76.3859
G1 X71.569 Y147.121 E76.45472
G1 X71.847 Y145.77 E76.52353
G1 X72.203 Y144.437 E76.59237
G1 X72.636 Y143.127 E76.6612
G1 X73.143 Y141.844 E76.73003
G1 X73.725 Y140.592 E76.79891
G1 X74.377 Y139.377 E76.8677
G1 X75.099 Y138.201 E76.93655
G1 X75.888 Y137.069 E77.00539
G1 X76.742 Y135.985 E77.07423
G1 X77.656 Y134.952 E77.14305
G1 X78.629 Y133.974 E77.21187
G1 X79.657 Y133.054 E77.2807
G1 X80.737 Y132.195 E77.34955
G1 X81.865 Y131.4 E77.4184
G1 X83.036 Y130.671 E77.48721
G0 F3600 X82.25 Y131.625
G1 F450 X83.418 Y130.913 E77.55546
G1 X84.625 Y130.27 E77.62369
G1 X85.869 Y129.699 E77.69198
G1 X87.143 Y129.202 E77.7602
G1 X88.444 Y128.78 E77.82844
G1 X89.768 Y128.435 E77.8967
G1 X91.11 Y128.167 E77.96497
G1 X92.465 Y127.979 E78.03322
G1 X93.829 Y127.87 E78.10149
G1 X95.01 Y127.84 E78.16043
G1 X209.99 Y127.84 E83.8968
G1 X211.357 Y127.88 E83.96503
G1 X212.72 Y128 E84.0333
G1 X214.074 Y128.199 E84.10157
G1 X215.413 Y128.477 E84.1698
G1 X216.734 Y128.833 E84.23806
G1 X218.032 Y129.265 E84.30631
G1 X219.303 Y129.773 E84.3746
G1 X220.541 Y130.354 E84.44282
G1 X221.744 Y131.006 E84.51109
G1 X222.906 Y131.728 E84.57934
G1 X224.024 Y132.516 E84.64758
G1 X225.095 Y133.368 E84.71586
G1 X226.113 Y134.281 E84.78408
G1 X227.077 Y135.252 E84.85234
G1 X227.982 Y136.278 E84.9206
G1 X228.825 Y137.355 E84.98883
G1 X229.605 Y138.48 E85.05713
G1 X230.317 Y139.648 E85.12537
G1 X230.96 Y140.855 E85.1936
G1 X231.531 Y142.099 E85.26189
G1 X232.028 Y143.373 E85.33012
G1 X232.45 Y144.674 E85.39835
G1 X232.795 Y145.998 E85.46661
G1 X233.063 Y147.34 E85.53489
G1 X233.251 Y148.695 E85.60314
G1 X233.36 Y150.059 E85.6714
G1 X233.39 Y151.24 E85.73034
G1 X233.39 Y153.76 E85.85607
G1 X233.35 Y155.127 E85.9243
G1 X233.23 Y156.49 E85.99256
