;FLAVOR:Marlin
;TIME:25107
;Filament used: 3.95506m
;Layer height: 0.06
;Generated with Cura_SteamEngine 3.4.1
M82 ;absolute extrusion mode
;-- START GCODE --
;Sliced for Type A Machines Series 1
;Sliced at: Fri 20-07-2018 15:23:46
;Basic settings:
;Layer height: 0.06
;Walls: 1
;Fill: {fill_distance}
;Print Speed: {print_speed}
;Support: 0
;Retraction Speed: 35
;Retraction Distance: 0.4
;Print time: 06:58:28
;Filament used: [3.96]m [0.0]g
;Settings based on: {material_profile}
G21 ;metric values
G90 ;absolute positioning
G28 ;move to endstops
G29 ;allows for auto-levelling
G1 Z15.0 F12000 ;move the platform down 15mm
G1 X150 Y5 F9000 ;center
M140 S60 ;Prep Heat Bed
M109 S210 ;Heat To temp
M190 S60 ;Heat Bed to temp
G1 X150 Y5 Z0.3 ;move the platform to purge extrusion
G92 E0 ;zero the extruded length
G1 F200 X250 E30 ;extrude 30mm of feed stock
G92 E0 ;zero the extruded length again
G1 X150 Y150  Z25 F12000 ;recenter and begin
G1 F9000
G92 E0
G1 F2100 E-0.4
;LAYER_COUNT:47
;LAYER:0
M107
G0 F3600 X90.88 Y133.193 Z0.3
;TYPE:SKIRT
G1 F2100 E0
G1 F450 X91.571 Y132.809 E0.03944
G1 X92.296 Y132.497 E0.07882
G1 X93.049 Y132.26 E0.1182
G1 X93.823 Y132.101 E0.15762
G1 X94.608 Y132.02 E0.19699
G1 X95.01 Y132.01 E0.21706
G1 X209.99 Y132.01 E5.95343
G1 X210.779 Y132.05 E5.99285
G1 X211.559 Y132.169 E6.03221
G1 X212.324 Y132.367 E6.07163
G1 X213.064 Y132.641 E6.111
G1 X213.773 Y132.989 E6.15041
G1 X214.444 Y133.407 E6.18985
G1 X215.068 Y133.89 E6.22921
G1 X215.641 Y134.433 E6.2686
G1 X216.156 Y135.032 E6.30801
G1 X216.607 Y135.68 E6.3474
G1 X216.991 Y136.371 E6.38684
G1 X217.303 Y137.096 E6.42621
G1 X217.54 Y137.849 E6.4656
G1 X217.699 Y138.623 E6.50502
G1 X217.78 Y139.408 E6.54439
G1 X217.79 Y139.81 E6.56445
G1 X217.79 Y165.19 E7.83067
G1 X217.75 Y165.979 E7.87008
G1 X217.631 Y166.759 E7.90945
G1 X217.433 Y167.524 E7.94887
G1 X217.159 Y168.264 E7.98824
G1 X216.811 Y168.973 E8.02764
G1 X216.393 Y169.644 E8.06708
G1 X215.91 Y170.268 E8.10645
G1 X215.367 Y170.841 E8.14583
G1 X214.768 Y171.356 E8.18524
G1 X214.12 Y171.807 E8.22463
G1 X213.429 Y172.191 E8.26407
G1 X212.704 Y172.503 E8.30345
G1 X211.951 Y172.74 E8.34283
G1 X211.177 Y172.899 E8.38226
G1 X210.392 Y172.98 E8.42163
G1 X209.99 Y172.99 E8.44169
G1 X95.01 Y172.99 E14.17806
G1 X94.221 Y172.95 E14.21748
G1 X93.441 Y172.831 E14.25684
G1 X92.676 Y172.633 E14.29627
G1 X91.936 Y172.359 E14.33564
G1 X91.227 Y172.011 E14.37504
G1 X90.556 Y171.593 E14.41448
G1 X89.932 Y171.11 E14.45385
G1 X89.359 Y170.567 E14.49323
G1 X88.844 Y169.968 E14.53264
G1 X88.393 Y169.32 E14.57203
G1 X88.009 Y168.629 E14.61147
G1 X87.697 Y167.904 E14.65085
G1 X87.46 Y167.151 E14.69023
G1 X87.301 Y166.377 E14.72965
G1 X87.22 Y165.592 E14.76902
G1 X87.21 Y165.19 E14.78909
G1 X87.21 Y139.81 E16.0553
G1 X87.25 Y139.021 E16.09471
G1 X87.369 Y138.241 E16.13408
G1 X87.567 Y137.476 E16.1735
G1 X87.841 Y136.736 E16.21287
G1 X88.189 Y136.027 E16.25227
G1 X88.607 Y135.356 E16.29171
G1 X89.09 Y134.732 E16.33108
G1 X89.633 Y134.159 E16.37047
G1 X90.232 Y133.644 E16.40988
G1 X90.88 Y133.193 E16.44927
G0 F3600 X91.263 Y133.429
G1 F450 X91.946 Y133.074 E16.48767
G1 X92.661 Y132.793 E16.526
G1 X93.403 Y132.587 E16.56441
G1 X94.161 Y132.459 E16.60277
G1 X95.01 Y132.41 E16.64519
G1 X209.99 Y132.41 E22.38157
G1 X210.758 Y132.45 E22.41994
G1 X211.518 Y132.569 E22.45832
G1 X212.261 Y132.767 E22.49668
G1 X212.98 Y133.041 E22.53507
G1 X213.666 Y133.388 E22.57342
G1 X214.313 Y133.804 E22.61179
G1 X214.913 Y134.285 E22.65016
G1 X215.46 Y134.826 E22.68854
G1 X215.948 Y135.421 E22.72693
G1 X216.371 Y136.063 E22.76529
G1 X216.726 Y136.746 E22.80369
G1 X217.007 Y137.461 E22.84202
G1 X217.213 Y138.203 E22.88044
G1 X217.341 Y138.961 E22.91879
G1 X217.39 Y139.81 E22.96122
G1 X217.39 Y165.19 E24.22743
G1 X217.35 Y165.958 E24.2658
G1 X217.231 Y166.718 E24.30418
G1 X217.033 Y167.461 E24.34254
G1 X216.759 Y168.18 E24.38093
G1 X216.412 Y168.866 E24.41928
G1 X215.996 Y169.513 E24.45766
G1 X215.515 Y170.113 E24.49602
G1 X214.974 Y170.66 E24.53441
G1 X214.379 Y171.148 E24.5728
G1 X213.737 Y171.571 E24.61116
G1 X213.054 Y171.926 E24.64956
G1 X212.339 Y172.207 E24.68789
G1 X211.597 Y172.413 E24.7263
G1 X210.839 Y172.541 E24.76466
G1 X209.99 Y172.59 E24.80708
G1 X95.01 Y172.59 E30.54346
G1 X94.242 Y172.55 E30.58183
G1 X93.482 Y172.431 E30.62021
G1 X92.739 Y172.233 E30.65857
G1 X92.02 Y171.959 E30.69696
G1 X91.334 Y171.612 E30.73531
G1 X90.687 Y171.196 E30.77368
G1 X90.087 Y170.715 E30.81205
G1 X89.54 Y170.174 E30.85043
G1 X89.052 Y169.579 E30.88882
G1 X88.629 Y168.937 E30.92718
G1 X88.274 Y168.254 E30.96558
G1 X87.993 Y167.539 E31.00391
G1 X87.787 Y166.797 E31.04233
G1 X87.659 Y166.039 E31.08068
G1 X87.61 Y165.19 E31.12311
G1 X87.61 Y139.81 E32.38932
G1 X87.65 Y139.042 E32.42769
G1 X87.769 Y138.282 E32.46607
G1 X87.967 Y137.539 E32.50443
G1 X88.241 Y136.82 E32.54282
G1 X88.588 Y136.134 E32.58117
G1 X89.004 Y135.487 E32.61955
G1 X89.485 Y134.887 E32.65791
G1 X90.026 Y134.34 E32.6963
G1 X90.621 Y133.852 E32.73469
G1 X91.263 Y133.429 E32.77305
G0 F3600 X91.008 Y134.067
G1 F450 X91.644 Y133.672 E32.8104
G1 X92.318 Y133.348 E32.84771
G1 X93.023 Y133.098 E32.88503
G1 X93.751 Y132.924 E32.92237
G1 X94.493 Y132.829 E32.95969
G1 X95.01 Y132.81 E32.9855
G1 X209.99 Y132.81 E38.72188
G1 X210.737 Y132.85 E38.7592
G1 X211.475 Y132.969 E38.79649
G1 X212.197 Y133.167 E38.83384
G1 X212.893 Y133.44 E38.87114
G1 X213.556 Y133.787 E38.90847
G1 X214.179 Y134.202 E38.94582
G1 X214.753 Y134.681 E38.98312
G1 X215.274 Y135.218 E39.02045
G1 X215.733 Y135.808 E39.05774
G1 X216.128 Y136.444 E39.09509
G1 X216.452 Y137.118 E39.1324
G1 X216.702 Y137.823 E39.16972
G1 X216.876 Y138.551 E39.20706
G1 X216.971 Y139.293 E39.24438
G1 X216.99 Y139.81 E39.2702
G1 X216.99 Y165.19 E40.53641
G1 X216.95 Y165.937 E40.57373
G1 X216.831 Y166.675 E40.61102
G1 X216.633 Y167.397 E40.64838
G1 X216.36 Y168.093 E40.68567
G1 X216.013 Y168.756 E40.72301
G1 X215.598 Y169.379 E40.76035
G1 X215.119 Y169.953 E40.79765
G1 X214.582 Y170.474 E40.83498
G1 X213.992 Y170.933 E40.87227
G1 X213.356 Y171.328 E40.90963
G1 X212.682 Y171.652 E40.94694
G1 X211.977 Y171.902 E40.98425
G1 X211.249 Y172.076 E41.0216
G1 X210.507 Y172.171 E41.05892
G1 X209.99 Y172.19 E41.08473
G1 X95.01 Y172.19 E46.8211
G1 X94.263 Y172.15 E46.85843
G1 X93.525 Y172.031 E46.89572
G1 X92.803 Y171.833 E46.93307
G1 X92.107 Y171.56 E46.97037
G1 X91.444 Y171.213 E47.0077
G1 X90.821 Y170.798 E47.04505
G1 X90.247 Y170.319 E47.08235
G1 X89.726 Y169.782 E47.11968
G1 X89.267 Y169.192 E47.15697
G1 X88.872 Y168.556 E47.19432
G1 X88.548 Y167.882 E47.23163
G1 X88.298 Y167.177 E47.26895
G1 X88.124 Y166.449 E47.30629
G1 X88.029 Y165.707 E47.34361
G1 X88.01 Y165.19 E47.36942
G1 X88.01 Y139.81 E48.63564
G1 X88.05 Y139.063 E48.67296
G1 X88.169 Y138.325 E48.71025
G1 X88.367 Y137.603 E48.7476
G1 X88.64 Y136.907 E48.7849
G1 X88.987 Y136.244 E48.82224
G1 X89.402 Y135.621 E48.85958
G1 X89.881 Y135.047 E48.89688
G1 X90.418 Y134.526 E48.93421
G1 X91.008 Y134.067 E48.9715
G0 F3600 X91.394 Y134.289
G1 F450 X92.023 Y133.925 E49.00776
G1 X92.688 Y133.632 E49.04401
G1 X93.381 Y133.414 E49.08026
G1 X94.093 Y133.274 E49.11646
G1 X95.01 Y133.21 E49.16232
G1 X209.99 Y133.21 E54.8987
G1 X210.715 Y133.25 E54.93492
G1 X211.432 Y133.369 E54.97118
G1 X212.131 Y133.567 E55.00743
G1 X212.804 Y133.84 E55.04366
G1 X213.443 Y134.185 E55.07989
G1 X214.04 Y134.599 E55.11614
G1 X214.588 Y135.075 E55.15235
G1 X215.081 Y135.609 E55.18861
G1 X215.511 Y136.194 E55.22483
G1 X215.875 Y136.823 E55.26109
G1 X216.168 Y137.488 E55.29734
G1 X216.386 Y138.181 E55.33359
G1 X216.526 Y138.893 E55.36979
G1 X216.59 Y139.81 E55.41565
G1 X216.59 Y165.19 E56.68186
G1 X216.55 Y165.915 E56.71809
G1 X216.431 Y166.632 E56.75435
G1 X216.233 Y167.331 E56.79059
G1 X215.96 Y168.004 E56.82683
G1 X215.615 Y168.643 E56.86306
G1 X215.201 Y169.24 E56.8993
G1 X214.725 Y169.788 E56.93552
G1 X214.191 Y170.281 E56.97178
G1 X213.606 Y170.711 E57.008
G1 X212.977 Y171.075 E57.04425
G1 X212.312 Y171.368 E57.08051
G1 X211.619 Y171.586 E57.11675
G1 X210.907 Y171.726 E57.15295
G1 X209.99 Y171.79 E57.19882
G1 X95.01 Y171.79 E62.93519
G1 X94.285 Y171.75 E62.97142
G1 X93.568 Y171.631 E63.00768
G1 X92.869 Y171.433 E63.04392
G1 X92.196 Y171.16 E63.08016
G1 X91.557 Y170.815 E63.11639
G1 X90.96 Y170.401 E63.15263
G1 X90.412 Y169.925 E63.18884
G1 X89.919 Y169.391 E63.2251
G1 X89.489 Y168.806 E63.26132
G1 X89.125 Y168.177 E63.29758
G1 X88.832 Y167.512 E63.33384
G1 X88.614 Y166.819 E63.37008
G1 X88.474 Y166.107 E63.40628
G1 X88.41 Y165.19 E63.45214
G1 X88.41 Y139.81 E64.71836
G1 X88.45 Y139.085 E64.75458
G1 X88.569 Y138.368 E64.79084
G1 X88.767 Y137.669 E64.82709
G1 X89.04 Y136.996 E64.86332
G1 X89.385 Y136.357 E64.89955
G1 X89.799 Y135.76 E64.9358
G1 X90.275 Y135.212 E64.97201
G1 X90.809 Y134.719 E65.00827
G1 X91.394 Y134.289 E65.04449
G0 F3600 X91.778 Y134.519
G1 F450 X92.399 Y134.187 E65.07962
G1 X93.053 Y133.927 E65.11473
G1 X93.733 Y133.743 E65.14988
G1 X94.429 Y133.637 E65.185
G1 X95.01 Y133.61 E65.21402
G1 X209.99 Y133.61 E70.9504
G1 X210.693 Y133.65 E70.98553
G1 X211.387 Y133.769 E71.02066
G1 X212.062 Y133.967 E71.05575
G1 X212.711 Y134.239 E71.09086
G1 X213.325 Y134.584 E71.12599
G1 X213.896 Y134.995 E71.16109
G1 X214.417 Y135.469 E71.19623
G1 X214.881 Y135.999 E71.23138
G1 X215.281 Y136.578 E71.26649
G1 X215.613 Y137.199 E71.30162
G1 X215.873 Y137.853 E71.33673
G1 X216.057 Y138.533 E71.37188
G1 X216.163 Y139.229 E71.407
G1 X216.19 Y139.81 E71.43602
G1 X216.19 Y165.19 E72.70223
G1 X216.15 Y165.893 E72.73736
G1 X216.031 Y166.587 E72.77249
G1 X215.833 Y167.262 E72.80758
G1 X215.561 Y167.911 E72.84269
G1 X215.216 Y168.525 E72.87783
G1 X214.805 Y169.096 E72.91293
G1 X214.331 Y169.617 E72.94807
G1 X213.801 Y170.081 E72.98321
G1 X213.222 Y170.481 E73.01832
G1 X212.601 Y170.813 E73.05345
G1 X211.947 Y171.073 E73.08857
G1 X211.267 Y171.257 E73.12371
G1 X210.571 Y171.363 E73.15883
G1 X209.99 Y171.39 E73.18785
G1 X95.01 Y171.39 E78.92423
G1 X94.307 Y171.35 E78.95936
G1 X93.613 Y171.231 E78.99449
G1 X92.938 Y171.033 E79.02958
G1 X92.289 Y170.761 E79.06469
G1 X91.675 Y170.416 E79.09983
G1 X91.104 Y170.005 E79.13492
G1 X90.583 Y169.531 E79.17007
G1 X90.119 Y169.001 E79.20521
G1 X89.719 Y168.422 E79.24032
G1 X89.387 Y167.801 E79.27545
G1 X89.127 Y167.147 E79.31056
G1 X88.943 Y166.467 E79.34571
G1 X88.837 Y165.771 E79.38083
G1 X88.81 Y165.19 E79.40985
G1 X88.81 Y139.81 E80.67606
G1 X88.85 Y139.107 E80.71119
G1 X88.969 Y138.413 E80.74632
G1 X89.167 Y137.738 E80.78142
G1 X89.439 Y137.089 E80.81652
G1 X89.784 Y136.475 E80.85166
G1 X90.195 Y135.904 E80.88676
G1 X90.669 Y135.383 E80.9219
G1 X91.199 Y134.919 E80.95704
G1 X91.778 Y134.519 E80.99215
G0 F3600 X92.16 Y134.758
G1 F450 X92.772 Y134.459 E81.02613
G1 X93.414 Y134.234 E81.06007
G1 X94.079 Y134.085 E81.09407
G1 X95.01 Y134.01 E81.14067
G1 X209.99 Y134.01 E86.87705
G1 X210.67 Y134.05 E86.91103
G1 X211.34 Y134.169 E86.94498
G1 X211.992 Y134.366 E86.97896
G1 X212.616 Y134.638 E87.01292
G1 X213.204 Y134.982 E87.04691
G1 X213.748 Y135.392 E87.08089
G1 X214.239 Y135.863 E87.11484
G1 X214.673 Y136.388 E87.14882
G1 X215.042 Y136.96 E87.18278
G1 X215.341 Y137.572 E87.21676
G1 X215.566 Y138.214 E87.2507
G1 X215.715 Y138.879 E87.2847
G1 X215.79 Y139.81 E87.3313
G1 X215.79 Y165.19 E88.59751
G1 X215.75 Y165.87 E88.6315
G1 X215.631 Y166.54 E88.66545
G1 X215.434 Y167.192 E88.69943
G1 X215.162 Y167.816 E88.73339
G1 X214.818 Y168.404 E88.76738
G1 X214.408 Y168.948 E88.80136
G1 X213.937 Y169.439 E88.83531
G1 X213.412 Y169.873 E88.86929
G1 X212.84 Y170.242 E88.90325
G1 X212.228 Y170.541 E88.93723
G1 X211.586 Y170.766 E88.97117
G1 X210.921 Y170.915 E89.00517
G1 X209.99 Y170.99 E89.05177
G1 X95.01 Y170.99 E94.78814
G1 X94.33 Y170.95 E94.82213
G1 X93.66 Y170.831 E94.85608
G1 X93.008 Y170.634 E94.89006
G1 X92.384 Y170.362 E94.92402
G1 X91.796 Y170.018 E94.95801
G1 X91.252 Y169.608 E94.99199
G1 X90.761 Y169.137 E95.02594
G1 X90.327 Y168.612 E95.05992
G1 X89.958 Y168.04 E95.09388
G1 X89.659 Y167.428 E95.12786
G1 X89.434 Y166.786 E95.1618
G1 X89.285 Y166.121 E95.1958
G1 X89.21 Y165.19 E95.2424
G1 X89.21 Y139.81 E96.50861
G1 X89.25 Y139.13 E96.5426
G1 X89.369 Y138.46 E96.57655
G1 X89.566 Y137.808 E96.61053
G1 X89.838 Y137.184 E96.64449
G1 X90.182 Y136.596 E96.67847
G1 X90.592 Y136.052 E96.71246
G1 X91.063 Y135.561 E96.7464
G1 X91.588 Y135.127 E96.78039
G1 X92.16 Y134.758 E96.81435
G0 F3600 X91.975 Y135.344
G1 F450 X92.539 Y135.008 E96.8471
G1 X93.141 Y134.744 E96.87989
G1 X93.77 Y134.554 E96.91268
G1 X94.417 Y134.443 E96.94543
G1 X95.01 Y134.41 E96.97506
G1 X209.99 Y134.41 E102.71143
G1 X210.646 Y134.45 E102.74422
G1 X211.292 Y134.569 E102.77699
G1 X211.919 Y134.766 E102.80978
G1 X212.517 Y135.038 E102.84256
G1 X213.078 Y135.38 E102.87534
G1 X213.593 Y135.788 E102.90812
G1 X214.055 Y136.255 E102.94089
G1 X214.456 Y136.775 E102.97365
G1 X214.792 Y137.339 E103.0064
G1 X215.056 Y137.941 E103.0392
G1 X215.246 Y138.57 E103.07198
G1 X215.357 Y139.217 E103.10473
G1 X215.39 Y139.81 E103.13436
G1 X215.39 Y165.19 E104.40057
G1 X215.35 Y165.846 E104.43336
G1 X215.231 Y166.492 E104.46613
G1 X215.034 Y167.119 E104.49892
G1 X214.762 Y167.717 E104.5317
G1 X214.42 Y168.278 E104.56448
G1 X214.012 Y168.793 E104.59726
G1 X213.545 Y169.255 E104.63003
G1 X213.025 Y169.656 E104.66279
G1 X212.461 Y169.992 E104.69554
G1 X211.859 Y170.256 E104.72834
G1 X211.23 Y170.446 E104.76112
G1 X210.583 Y170.557 E104.79387
G1 X209.99 Y170.59 E104.8235
G1 X95.01 Y170.59 E110.55988
G1 X94.354 Y170.55 E110.59267
G1 X93.708 Y170.431 E110.62544
G1 X93.081 Y170.234 E110.65823
G1 X92.483 Y169.962 E110.691
G1 X91.922 Y169.62 E110.72378
G1 X91.407 Y169.212 E110.75656
G1 X90.945 Y168.745 E110.78933
G1 X90.544 Y168.225 E110.82209
G1 X90.208 Y167.661 E110.85485
G1 X89.944 Y167.059 E110.88764
G1 X89.754 Y166.43 E110.92042
G1 X89.643 Y165.783 E110.95317
G1 X89.61 Y165.19 E110.98281
G1 X89.61 Y139.81 E112.24902
G1 X89.65 Y139.154 E112.28181
G1 X89.769 Y138.508 E112.31458
G1 X89.966 Y137.881 E112.34737
G1 X90.238 Y137.283 E112.38014
G1 X90.58 Y136.722 E112.41292
G1 X90.988 Y136.207 E112.4457
G1 X91.455 Y135.745 E112.47848
G1 X91.975 Y135.344 E112.51124
G0 F3600 X92.36 Y135.57
G1 F450 X92.916 Y135.27 E112.54276
G1 X93.505 Y135.042 E112.57427
G1 X94.119 Y134.89 E112.60582
G1 X95.01 Y134.81 E112.65045
G1 X209.99 Y134.81 E118.38683
G1 X210.621 Y134.85 E118.41837
G1 X211.242 Y134.969 E118.44992
G1 X211.842 Y135.166 E118.48142
G1 X212.414 Y135.437 E118.513
G1 X212.946 Y135.777 E118.5445
G1 X213.431 Y136.183 E118.57606
G1 X213.861 Y136.646 E118.60758
G1 X214.23 Y137.16 E118.63915
G1 X214.53 Y137.716 E118.67067
G1 X214.758 Y138.305 E118.70218
G1 X214.91 Y138.919 E118.73374
G1 X214.99 Y139.81 E118.77837
G1 X214.99 Y165.19 E120.04458
G1 X214.95 Y165.821 E120.07612
G1 X214.831 Y166.442 E120.10767
G1 X214.634 Y167.042 E120.13918
G1 X214.363 Y167.614 E120.17075
G1 X214.023 Y168.146 E120.20225
G1 X213.617 Y168.631 E120.23381
G1 X213.154 Y169.061 E120.26533
G1 X212.64 Y169.43 E120.2969
G1 X212.084 Y169.73 E120.32842
G1 X211.495 Y169.958 E120.35993
G1 X210.881 Y170.11 E120.39149
G1 X209.99 Y170.19 E120.43612
G1 X95.01 Y170.19 E126.17249
G1 X94.379 Y170.15 E126.20404
G1 X93.758 Y170.031 E126.23558
G1 X93.158 Y169.834 E126.26709
G1 X92.586 Y169.563 E126.29867
G1 X92.054 Y169.223 E126.33017
G1 X91.569 Y168.817 E126.36172
G1 X91.139 Y168.354 E126.39325
G1 X90.77 Y167.84 E126.42481
G1 X90.47 Y167.284 E126.45633
G1 X90.242 Y166.695 E126.48784
G1 X90.09 Y166.081 E126.5194
G1 X90.01 Y165.19 E126.56403
G1 X90.01 Y139.81 E127.83025
G1 X90.05 Y139.179 E127.86179
G1 X90.169 Y138.558 E127.89333
G1 X90.366 Y137.958 E127.92484
G1 X90.637 Y137.386 E127.95642
G1 X90.977 Y136.854 E127.98792
G1 X91.383 Y136.369 E128.01947
G1 X91.846 Y135.939 E128.051
G1 X92.36 Y135.57 E128.08257
G0 F3600 X92.742 Y135.808
G1 F450 X93.288 Y135.544 E128.11282
G1 X93.864 Y135.355 E128.14307
G1 X94.46 Y135.243 E128.17332
G1 X95.01 Y135.21 E128.20081
G1 X209.99 Y135.21 E133.93719
G1 X210.595 Y135.25 E133.96744
G1 X211.189 Y135.369 E133.99766
G1 X211.763 Y135.565 E134.02792
G1 X212.306 Y135.836 E134.0582
